src/resources/how-to--3.svg

<svg width="131" height="148" viewBox="0 0 131 148" fill="none" xmlns="http://www.w3.org/2000/svg">
<path d="M56.3233 133.313C56.3561 133.141 56.3806 132.838 56.3806 132.838L59.9983 133.133C59.9983 133.133 62.2737 134.181 64.3036 134.869C66.1288 135.483 67.5366 135.68 67.3565 136.417C66.9636 138.055 64.8683 138.49 63.0595 138.432C61.3979 138.383 59.982 137.867 58.5578 137.507C57.5756 137.253 56.6589 137.638 55.9959 136.778C55.3657 135.983 56.0942 133.894 56.3233 133.313Z" fill="#214F64"/>
<path d="M38.9465 12.7859C37.375 13.0234 35.9345 12.1879 36.7939 10.6315C37.6533 9.08339 40.7063 8.28883 42.0077 9.48476C43.3091 10.6807 43.0062 12.9169 42.0077 12.876C41.0091 12.835 40.8945 12.491 38.9465 12.7859Z" fill="#B04844"/>
<path d="M9.87405 57.1828C9.87405 57.1828 6.1745 60.2627 4.40657 60.0252C2.64682 59.7876 1.98385 59.0258 1.98385 59.0258L0.567871 58.0347L0.829787 56.6995L1.96748 55.9951C1.96748 55.9951 4.9304 54.7172 5.06136 54.6271C5.19232 54.537 3.59627 53.767 3.50623 53.4476C3.4162 53.1199 3.5799 52.7759 3.5799 52.7759L7.96698 54.1111L9.87405 57.1828Z" fill="#FCAD95"/>
<path d="M75.0172 2.80078C74.9026 1.80144 74.1741 2.44855 74.1741 2.44855C74.1741 2.44855 73.8467 0.769338 73.372 0.580938C72.9955 0.425303 71.866 1.21167 71.866 1.21167L70.8838 3.96394C70.8838 3.96394 69.8771 2.26015 69.7216 3.18577C69.6888 3.37417 70.2536 5.11073 70.5974 6.1756C70.5564 6.38857 70.5237 6.60154 70.5073 6.80633C70.4337 7.55173 70.4009 8.09236 70.4009 8.09236L72.9546 9.26372C72.9546 9.26372 73.8877 7.863 74.4524 6.38857C74.4442 6.38038 75.2873 5.26636 75.0172 2.80078Z" fill="#FCAD95"/>
<path d="M27.177 133.542L26.9069 131.634L22.8636 131.306L21.9469 133.329C21.9223 133.37 20.5636 135.467 20.5554 136.663C20.5309 138.383 22.2661 138.441 24.1731 138.441C25.6382 138.441 27.0542 137.613 27.4389 136.704C27.8891 135.598 27.177 133.542 27.177 133.542Z" fill="#214F64"/>
<path d="M55.1034 100.859C52.7544 99.8758 49.816 100.875 48.5555 103.07C47.999 104.029 47.8025 105.069 48.0726 105.987C48.8666 108.714 53.7857 128.758 55.4226 133.182C55.6109 133.681 61.4385 133.436 61.2421 132.346C61.2421 132.346 58.1646 107.715 57.608 104.291C57.387 102.849 56.6422 101.506 55.1034 100.859Z" fill="#DD6441"/>
<path d="M52.1731 71.616L38.7417 75.3184C38.7417 75.3184 47.7778 104.856 48.2689 106.224C49.0546 108.403 51.6165 109.517 54.121 108.682C56.2 107.985 57.7224 106.134 57.485 104.307C56.4128 96.0015 52.1731 71.616 52.1731 71.616Z" fill="#DD6441"/>
<path d="M29.0592 99.9987C31.2445 98.9666 33.9619 99.9004 35.1323 102.087C35.6562 103.038 35.828 104.086 35.5825 105.02C34.8459 107.78 28.4617 132.059 28.4617 132.059C27.2912 132.993 21.8401 132.6 22.0857 131.035C22.6422 127.48 25.8589 107.232 26.3745 103.767C26.5792 102.317 27.635 100.679 29.0592 99.9987Z" fill="#F88950"/>
<path d="M31.1956 70.2068L44.6679 73.8519C44.6679 73.8519 36.0656 103.644 35.5827 105.02C34.8215 107.199 32.1614 108.19 29.8205 107.42C27.8725 106.781 26.2028 105.2 26.4484 103.373C27.5533 95.0838 31.1956 70.2068 31.1956 70.2068Z" fill="#F88950"/>
<path d="M31.1543 70.9361C31.1543 62.5154 33.0696 58.772 33.0696 58.772L50.2414 56.3064C50.2414 56.3064 51.8456 63.5639 52.3285 71.7634L42.8177 77.9151L31.1543 70.9361Z" fill="#F88950"/>
<path d="M74.0105 9.09154C74.1332 8.53453 72.8728 8.64102 71.8824 8.12496C70.7774 7.54338 69.9262 6.40479 69.6725 7.34679C69.607 7.59253 69.517 7.83008 69.4433 8.06762C68.9195 9.61578 68.3793 11.1557 67.7982 12.6793C66.816 15.2596 65.7274 17.7825 64.295 20.1416C64.1559 20.3873 62.568 21.4194 62.0442 21.7471C60.44 22.7546 58.7539 23.6311 57.0514 24.4748C54.0885 25.941 51.0519 27.2844 48.0072 28.5704C45.0688 29.7664 44.8396 33.9849 47.6552 35.4675C50.2498 36.8355 53.4992 34.3617 55.7255 33.1822C59.0895 31.4128 62.4289 29.5288 65.5228 27.309C67.3398 26.0066 69.1241 24.5567 70.0735 22.4925C71.6369 19.0849 72.6108 15.3825 73.4293 11.7373C73.5685 11.1557 73.8386 10.1482 74.0105 9.09154Z" fill="#214F64"/>
<path d="M40.9358 28.21C46.6979 28.3001 47.6064 28.4148 47.9093 28.6769C47.9093 28.6769 49.3498 32.5678 51.1832 37.9413C51.7562 39.6287 50.2993 43.8226 50.2993 43.8226C48.3594 47.5988 49.7181 59.0666 49.6035 59.3861C45.2083 64.5302 33.6676 59.7137 31.7115 58.6407L32.7673 53.1689C31.9979 43.9537 31.114 32.3138 31.4004 30.864C32.2598 30.2496 36.7533 28.1445 40.9358 28.21Z" fill="#F7EACF"/>
<path d="M26.1865 32.7563C23.9438 37.6547 22.8388 44.4453 20.9973 46.2473C17.3141 49.0897 10.7253 52.2352 7.51679 53.939C6.83745 54.2994 7.95059 55.0694 8.46624 56.0687C9.01462 57.1172 8.99825 58.3787 9.57938 58.2148C11.6993 57.6169 13.8846 57.2892 15.9881 56.6257C18.5172 55.8312 24.3285 54.3404 29.1494 46.9027C30.7782 44.3961 30.9828 43.1183 32.3578 40.4725C33.3318 38.5721 34.6414 36.4751 34.9279 34.329C35.3289 31.929 33.3318 29.7173 30.8927 29.8975C28.7647 30.0695 27.4387 30.0122 26.1865 32.7563Z" fill="#214F64"/>
<path d="M41.2549 31.0608C42.8755 30.9707 43.7594 30.1843 44.2342 29.3242L44.1441 27.8416C44.1441 27.8416 39.6588 27.5221 36.5322 28.4887L37.76 30.2744C38.693 30.7659 39.8716 31.1345 41.2549 31.0608Z" fill="#FCA38B"/>
<path d="M42.8835 24.0409C44.4632 23.3282 47.8272 21.6981 46.7959 20.0435C45.9037 18.6182 47.0087 17.2748 46.4603 15.7922C45.9365 14.3751 45.0607 13.6952 43.9721 12.7287C42.7035 11.5983 40.2889 10.9594 38.5456 11.9505C37.9235 12.3027 37.6534 12.8188 36.9986 13.0891C36.4175 13.3266 34.6332 13.4004 34.5841 15.4809C34.5595 16.5868 34.9197 16.9226 33.9375 17.7663C31.9977 19.421 33.1517 20.6579 33.3073 21.477C33.4873 22.4354 36.6057 23.0825 37.6534 24.2374L42.8835 24.0409Z" fill="#BF5A44"/>
<path d="M38.4395 28.4478L42.5564 28.4805L41.9426 24.2292L38.9469 24.3521L38.4395 28.4478Z" fill="#FCA38B"/>
<path d="M40.9357 26.0969C41.2876 26.2279 41.967 26.2034 42.2125 26.1378L41.9424 24.2292L38.9468 24.3521C38.9468 24.3521 39.3151 25.4743 40.9357 26.0969Z" fill="#F78376"/>
<path d="M44.2096 17.1355V21.7226C44.185 23.9097 43.1046 25.7282 41.0584 25.7036C38.2755 25.6708 36.7777 23.8196 36.7941 21.6325L36.8432 17.3157L44.2096 17.1355Z" fill="#FCAD95"/>
<path d="M35.8448 19.4456C36.737 20.1664 39.4052 18.1513 40.7148 17.1029C41.7461 17.8401 43.7187 19.4947 44.529 19.3145C44.9218 19.2244 44.7827 17.0291 44.619 16.3329C44.0788 13.9738 40.3792 14.0885 40.3792 14.0885C40.3792 14.0885 37.4572 13.81 36.3441 15.7595C35.984 16.3984 35.3374 19.036 35.8448 19.4456Z" fill="#BF5A44"/>
<path d="M36.5731 28.0544C36.5731 28.0544 38.5784 35.9017 38.8648 44.4616C39.1349 52.4236 40.2644 66.488 39.4787 68.2164C38.7339 69.8465 28.8711 69.8465 28.8711 66.8157C28.8711 62.72 29.0594 54.5369 28.8711 50.4495C28.6501 45.7313 27.2833 33.2559 27.6679 31.5767C28.0608 29.9057 33.2255 29.1193 36.5731 28.0544Z" fill="#214F64"/>
<path d="M44.1602 27.6206C44.1602 27.6206 50.8799 27.3421 52.9998 27.0144C53.4745 27.5468 53.8674 38.3921 54.604 48.0906C54.7595 50.204 55.2425 60.6479 55.3161 65.1121C55.357 67.7006 47.4832 68.5607 47.4014 66.8077C47.0822 59.583 47.1558 50.1712 46.9839 45.4612C46.7548 38.9327 44.1602 27.6206 44.1602 27.6206Z" fill="#214F64"/>
<path d="M100.538 147.541C100.006 147.549 99.5805 145.19 101.635 145.116C102.11 145.1 103.73 143.454 104.41 142.634C104.942 141.987 109.689 141.119 109.738 143.159C109.771 144.445 110.155 147.435 109.361 147.443C107.422 147.467 103.026 147.516 100.538 147.541Z" fill="#4D909E"/>
<path d="M70.3274 143.626C69.8282 143.437 70.2865 141.086 72.2263 141.766C72.6683 141.922 74.78 140.98 75.7131 140.456C76.4415 140.046 81.1806 140.963 80.4849 142.888C80.0511 144.093 79.3226 147.025 78.586 146.747C76.7689 146.058 72.6601 144.51 70.3274 143.626Z" fill="#4D909E"/>
<path d="M97.8208 78.2998C97.8208 78.2998 99.425 101.227 100.244 110.156C100.628 114.358 110.147 114.546 110.196 111.745C110.434 98.3603 110.818 83.19 109.558 74.2533C108.911 73.5079 97.8208 78.2998 97.8208 78.2998Z" fill="#BDDAE5"/>
<path d="M110.442 111.27C109.279 105.814 100.129 104.209 100.243 110.164C100.366 116.537 102.118 133.247 102.944 142.02C103.034 142.954 110.671 144.141 110.671 141.569C111.514 134.951 112.316 120.043 110.442 111.27Z" fill="#BDDAE5"/>
<path d="M110.196 79.2009C110.196 79.2009 99.22 85.5327 86.6563 81.5272L86.1079 67.561L108.886 65.2593L110.196 79.2009Z" fill="#DDEBF4"/>
<path d="M111.031 61.9172C112.185 60.9425 113.347 59.9349 114.493 58.9192C115.639 57.9035 116.769 56.8796 117.865 55.8393C118.97 54.799 120.051 53.7423 121.074 52.6774C121.516 52.2351 121.917 51.7764 122.318 51.3259C122.261 51.2358 122.211 51.1457 122.154 51.0474C121.696 50.2938 121.18 49.5074 120.648 48.721C119.576 47.1483 118.438 45.5756 117.276 44.011C116.114 42.4383 114.935 40.882 113.732 39.3256C112.537 37.7775 111.317 36.2129 110.106 34.6975C110.032 34.6074 109.975 34.5255 109.918 34.4518C108.502 32.4122 109.009 29.6107 111.047 28.1936C113.085 26.7765 115.885 27.2762 117.301 29.324C118.455 30.9951 119.576 32.6415 120.697 34.3125C121.81 35.9836 122.915 37.6628 124.012 39.3584C125.101 41.0622 126.181 42.7742 127.229 44.568C127.753 45.4609 128.268 46.3701 128.776 47.3531C129.029 47.8446 129.283 48.3524 129.537 48.9422C129.668 49.2453 129.791 49.5402 129.93 49.9415C129.995 50.1463 130.061 50.3511 130.134 50.646C130.2 50.9081 130.29 51.3095 130.298 51.9075V52.2187C130.298 52.9969 129.995 53.7751 129.39 54.3567L128.416 55.2823L127.45 56.126C126.803 56.6666 126.165 57.1908 125.518 57.6741C124.233 58.6653 122.94 59.5991 121.63 60.5001C120.329 61.4094 119.019 62.2858 117.702 63.1377C116.384 63.9978 115.066 64.8333 113.707 65.6688C112.742 66.2586 111.465 66.0784 110.72 65.1856C109.91 64.219 110.032 62.7527 111.031 61.9172Z" fill="#FCAD95"/>
<path d="M109.828 27.6367C111.735 25.4414 117.088 26.6291 121.181 32.3794C123.751 35.9918 127.295 41.1605 127.295 41.1605C128.301 43.0773 121.312 50.433 117.334 48.1968C117.334 48.1968 113.904 42.553 111.113 38.4983C109.288 35.8361 106.366 31.5931 109.828 27.6367Z" fill="#F88950"/>
<path d="M98.148 24.2781C91.2809 24.4583 84.0946 27.4236 84.1601 31.6339C84.1929 33.7227 84.6348 37.8593 84.774 48.6473C84.9459 61.4666 83.2516 67.3808 85.8708 69.0108C91.1254 72.2792 110.63 72.2628 111.62 68.5112C112.676 64.522 114.428 31.3145 114.28 28.5622C114.076 24.7369 105.015 24.0897 98.148 24.2781Z" fill="#FFAB4B"/>
<path d="M64.7624 30.4874C66.2521 32.4942 71.4085 43.2494 72.4153 42.8562C74.707 41.7668 76.1721 39.9729 77.8254 38.0971C79.5279 36.1557 81.4759 32.1911 83.9477 30.987C89.1124 28.4641 91.7315 34.8779 88.875 38.5394C85.0527 43.4542 79.2251 51.8257 72.3334 50.4332C65.8183 49.1144 62.7653 34.6977 61.7095 31.372C60.7928 28.4887 64.1322 29.3078 64.7624 30.4874Z" fill="#FCAD95"/>
<path d="M84.3242 28.169C80.9929 31.0851 77.3097 34.935 72.1123 40.8819C71.0156 43.7734 75.5745 51.0063 79.6833 49.9824C84.2096 46.7714 90.1518 39.1535 90.1518 39.1535C95.7011 34.6237 89.8735 23.3279 84.3242 28.169Z" fill="#F88950"/>
<path d="M103.91 24.5239L97.8452 24.4256L98.2381 16.521L103.877 16.5865L103.91 24.5239Z" fill="#FFA58F"/>
<path d="M94.9888 10.353C94.9888 10.353 94.6287 14.1456 94.6451 15.9149C94.6778 18.6426 95.2589 21.3294 97.3297 21.4686C99.9079 21.6488 101.332 18.8884 101.357 16.177L101.676 10.7626L94.9888 10.353Z" fill="#FFAE99"/>
<path d="M105.244 17.7006C105.604 16.7341 105.85 14.1947 106.357 13.0725C106.857 11.9421 107.651 9.60762 107.372 8.58371C107.094 7.56799 105.825 7.66628 105.465 7.21576C105.097 6.77343 104.401 5.92154 103.378 5.70856C102.347 5.49559 101.438 6.52769 101.168 6.21642C100.587 5.5775 99.0074 5.15975 98.3281 5.98707C97.6897 6.77343 96.8302 6.08536 96.3473 5.8642C94.7349 5.13517 93.9983 7.0847 94.4648 7.78915C94.9559 8.53456 95.136 8.92774 94.915 9.4438C94.7677 9.77964 94.252 10.992 95.3979 11.4834C96.1182 11.7947 95.9381 12.7695 98.058 13.0398C99.1711 13.179 100.08 12.8432 100.382 14.1456C100.743 15.7019 100.481 17.5122 100.931 18.3969C101.397 19.3635 104.172 20.5676 105.244 17.7006Z" fill="#AF683B"/>
<path d="M99.6054 14.7927C99.188 15.579 99.3517 16.4801 99.9738 16.8077C100.588 17.1354 101.431 16.7668 101.848 15.9804C102.274 15.194 102.102 14.293 101.48 13.9572C100.866 13.6377 100.023 14.0063 99.6054 14.7927Z" fill="#FFAE99"/>
<path d="M99.9652 80.9539C99.9652 80.9539 92.7052 101.85 90.3643 110.598C89.2675 114.718 79.5931 111.794 80.0268 108.993C82.0894 95.6081 84.9869 84.0666 86.452 75.5476L99.9652 80.9539Z" fill="#DDEBF4"/>
<path d="M80.6081 105.364C81.6721 99.4581 91.5676 104.34 90.4381 110.172C89.2349 116.422 84.6923 133.239 82.3842 141.725C82.1386 142.626 73.8228 141.652 74.2566 139.112C75.116 134.124 79.5113 111.426 80.6081 105.364Z" fill="#DDEBF4"/>
<path d="M95.7007 24.4583C96.511 24.3601 97.3377 24.2945 98.148 24.2781C100.481 24.2126 103.059 24.2536 105.465 24.4747C104.786 25.2693 103.329 26.3997 100.587 26.2604C97.9597 26.1294 96.4537 25.1546 95.7007 24.4583Z" fill="#FFA58F"/>
<path d="M105.466 24.4749C104.787 25.2694 103.33 26.3998 100.588 26.2606C97.9606 26.1295 96.4546 25.1548 95.6934 24.4585L105.466 24.4749Z" fill="#FFA58F"/>
<path d="M101.046 26.9159C103.796 26.9159 105.294 25.6626 105.965 24.8926L104.983 24.0489C104.311 24.8271 103.018 25.7445 100.628 25.6135C98.2546 25.4906 96.8795 24.6633 96.1429 23.9834L95.2671 24.9336C96.1592 25.7527 97.8044 26.7602 100.563 26.9077C100.718 26.9159 100.882 26.9159 101.046 26.9159Z" fill="#F88950"/>
<path d="M65.2041 26.8911C64.9177 25.4659 64.3283 24.7204 64.2711 24.7123C63.6817 24.5976 64.2792 26.9485 63.6572 26.9485C62.7241 26.9567 61.791 22.6644 61.2345 22.6726C60.9644 22.6726 61.3572 25.3921 61.3572 25.3921C61.3572 25.3921 60.2032 22.6317 59.7612 22.7545C58.8609 23.0003 59.8267 26.1785 59.8267 26.1785C59.8267 26.1785 58.7872 24.1471 58.7545 24.7286C58.6235 26.6864 60.3751 31.3144 62.4704 31.2243C65.5806 31.0851 65.4988 28.3246 65.2041 26.8911Z" fill="#FCAD95"/>
</svg>

<svg width="131" height="148" fill="none" xmlns="http://www.w3.org/2000/svg"><path d="M56.323 133.313c.033-.172.058-.475.058-.475l3.617.295s2.276 1.048 4.306 1.736c1.825.614 3.233.811 3.052 1.548-.392 1.638-2.488 2.073-4.296 2.015-1.662-.049-3.078-.565-4.502-.925-.982-.254-1.9.131-2.562-.729-.63-.795.098-2.884.327-3.465z" fill="#214F64"/><path d="M38.947 12.786c-1.572.237-3.013-.598-2.153-2.154.86-1.549 3.912-2.343 5.214-1.147 1.301 1.196.998 3.432 0 3.391-.999-.041-1.114-.385-3.062-.09z" fill="#B04844"/><path d="M9.874 57.183s-3.7 3.08-5.467 2.842c-1.76-.237-2.423-1-2.423-1l-1.416-.99L.83 56.7l1.137-.705s2.963-1.278 3.094-1.368c.131-.09-1.465-.86-1.555-1.18-.09-.327.074-.671.074-.671l4.387 1.335 1.907 3.072zM75.017 2.8c-.114-.999-.843-.351-.843-.351S73.847.769 73.372.58c-.376-.156-1.506.63-1.506.63l-.982 2.753s-1.007-1.704-1.162-.778c-.033.188.532 1.925.875 2.99a5.837 5.837 0 0 0-.09.63c-.073.746-.106 1.286-.106 1.286l2.554 1.172s.933-1.401 1.497-2.875c-.008-.009.835-1.123.565-3.588z" fill="#FCAD95"/><path d="m27.177 133.542-.27-1.908-4.043-.328-.917 2.023c-.025.041-1.383 2.138-1.392 3.334-.024 1.72 1.711 1.778 3.618 1.778 1.465 0 2.881-.828 3.266-1.737.45-1.106-.262-3.162-.262-3.162z" fill="#214F64"/><path d="M55.103 100.859c-2.349-.983-5.287.016-6.547 2.211-.557.959-.753 1.999-.483 2.917.794 2.727 5.713 22.771 7.35 27.195.188.499 6.015.254 5.82-.836 0 0-3.078-24.631-3.635-28.055-.221-1.442-.966-2.785-2.505-3.432z" fill="#DD6441"/><path d="m52.173 71.616-13.431 3.702s9.036 29.538 9.527 30.906c.786 2.179 3.348 3.293 5.852 2.458 2.079-.697 3.601-2.548 3.364-4.375-1.072-8.306-5.312-32.691-5.312-32.691z" fill="#DD6441"/><path d="M29.06 99.999c2.184-1.032 4.902-.099 6.072 2.088.524.951.696 1.999.45 2.933-.736 2.76-7.12 27.039-7.12 27.039-1.17.934-6.622.541-6.376-1.024.556-3.555 3.773-23.803 4.289-27.268.204-1.45 1.26-3.088 2.684-3.768z" fill="#F88950"/><path d="m31.196 70.207 13.472 3.645s-8.602 29.792-9.085 31.168c-.761 2.179-3.422 3.17-5.762 2.4-1.949-.639-3.618-2.22-3.373-4.047 1.105-8.29 4.748-33.166 4.748-33.166z" fill="#F88950"/><path d="M31.154 70.936c0-8.42 1.916-12.164 1.916-12.164l17.171-2.466s1.605 7.258 2.087 15.457l-9.51 6.152-11.664-6.979z" fill="#F88950"/><path d="M74.01 9.092c.123-.557-1.137-.451-2.128-.967-1.105-.582-1.956-1.72-2.21-.778-.065.246-.155.483-.229.72a128.446 128.446 0 0 1-1.645 4.612c-.982 2.58-2.07 5.103-3.503 7.463-.14.245-1.727 1.277-2.25 1.605-1.605 1.008-3.291 1.884-4.994 2.728-2.962 1.466-6 2.81-9.044 4.095-2.938 1.196-3.167 5.415-.352 6.898 2.595 1.367 5.844-1.106 8.07-2.286 3.364-1.77 6.704-3.653 9.798-5.873 1.817-1.302 3.601-2.752 4.55-4.817 1.564-3.407 2.538-7.11 3.356-10.755.14-.581.41-1.589.581-2.645z" fill="#214F64"/><path d="M40.936 28.21c5.762.09 6.67.205 6.973.467 0 0 1.44 3.89 3.274 9.264.573 1.688-.884 5.882-.884 5.882-1.94 3.776-.58 15.244-.696 15.563-4.395 5.144-15.935.328-17.892-.745l1.056-5.472c-.77-9.215-1.653-20.855-1.367-22.305.86-.614 5.353-2.72 9.536-2.654z" fill="#F7EACF"/><path d="M26.186 32.756c-2.242 4.899-3.347 11.69-5.189 13.491-3.683 2.843-10.272 5.988-13.48 7.692-.68.36.434 1.13.95 2.13.548 1.048.531 2.31 1.112 2.146 2.12-.598 4.306-.926 6.41-1.59 2.528-.794 8.34-2.285 13.16-9.722 1.63-2.507 1.834-3.785 3.209-6.43.974-1.9 2.283-3.998 2.57-6.144.4-2.4-1.596-4.612-4.035-4.431-2.128.172-3.454.114-4.707 2.858z" fill="#214F64"/><path d="M41.255 31.06c1.62-.09 2.504-.876 2.98-1.736l-.09-1.482s-4.486-.32-7.613.647l1.228 1.785c.933.492 2.112.86 3.495.787z" fill="#FCA38B"/><path d="M42.883 24.04c1.58-.712 4.944-2.342 3.913-3.996-.892-1.426.213-2.77-.336-4.252-.523-1.417-1.4-2.097-2.488-3.063-1.269-1.13-3.683-1.77-5.426-.778-.623.352-.893.868-1.547 1.138-.582.238-2.366.311-2.415 2.392-.025 1.106.336 1.442-.647 2.285-1.94 1.655-.785 2.892-.63 3.711.18.958 3.299 1.605 4.346 2.76l5.23-.196z" fill="#BF5A44"/><path d="m38.44 28.448 4.116.032-.613-4.25-2.996.122-.508 4.096z" fill="#FCA38B"/><path d="M40.936 26.097c.352.13 1.031.106 1.276.04l-.27-1.908-2.995.123s.368 1.122 1.989 1.745z" fill="#F78376"/><path d="M44.21 17.136v4.587c-.025 2.187-1.105 4.005-3.152 3.98-2.782-.032-4.28-1.883-4.264-4.07l.05-4.317 7.366-.18z" fill="#FCAD95"/><path d="M35.845 19.446c.892.72 3.56-1.295 4.87-2.343 1.031.737 3.004 2.392 3.814 2.211.393-.09.254-2.285.09-2.981-.54-2.36-4.24-2.244-4.24-2.244s-2.922-.279-4.035 1.67c-.36.64-1.007 3.277-.5 3.687z" fill="#BF5A44"/><path d="M36.573 28.054s2.005 7.848 2.292 16.408c.27 7.962 1.4 22.026.614 23.754-.745 1.63-10.608 1.63-10.608-1.4 0-4.096.188-12.28 0-16.367-.22-4.718-1.588-17.193-1.203-18.872.393-1.671 5.557-2.458 8.905-3.523zM44.16 27.62s6.72-.278 8.84-.606c.474.533.867 11.378 1.604 21.077.156 2.113.639 12.557.712 17.021.041 2.589-7.833 3.449-7.915 1.696-.319-7.225-.245-16.637-.417-21.347-.23-6.528-2.824-17.84-2.824-17.84z" fill="#214F64"/><path d="M100.538 147.541c-.532.008-.957-2.351 1.097-2.425.475-.016 2.095-1.662 2.775-2.482.532-.647 5.279-1.515 5.328.525.033 1.286.417 4.276-.377 4.284-1.939.024-6.335.073-8.823.098zM70.327 143.626c-.499-.189-.04-2.54 1.9-1.86.441.156 2.553-.786 3.486-1.31.729-.41 5.468.507 4.772 2.432-.434 1.205-1.162 4.137-1.899 3.859-1.817-.689-5.926-2.237-8.259-3.121z" fill="#4D909E"/><path d="M97.82 78.3s1.605 22.927 2.424 31.856c.384 4.202 9.903 4.39 9.952 1.589.238-13.385.622-28.555-.638-37.492-.647-.745-11.737 4.047-11.737 4.047z" fill="#BDDAE5"/><path d="M110.442 111.27c-1.163-5.456-10.313-7.061-10.199-1.106.123 6.373 1.875 23.083 2.701 31.856.09.934 7.727 2.121 7.727-.451.843-6.618 1.645-21.526-.229-30.299z" fill="#BDDAE5"/><path d="M110.196 79.2s-10.976 6.333-23.54 2.327l-.548-13.966 22.778-2.302 1.31 13.942z" fill="#DDEBF4"/><path d="M111.031 61.917a192.965 192.965 0 0 0 3.462-2.998 134 134 0 0 0 3.372-3.08 90.12 90.12 0 0 0 3.209-3.162c.442-.442.843-.9 1.244-1.351-.057-.09-.107-.18-.164-.279a57.784 57.784 0 0 0-1.506-2.326 143.6 143.6 0 0 0-3.372-4.71 270.49 270.49 0 0 0-3.544-4.685 351.706 351.706 0 0 0-3.626-4.629c-.074-.09-.131-.172-.188-.245a4.499 4.499 0 0 1 1.129-6.258 4.485 4.485 0 0 1 6.254 1.13 445.93 445.93 0 0 1 3.396 4.988 452.949 452.949 0 0 1 3.315 5.046c1.089 1.704 2.169 3.416 3.217 5.21a58.593 58.593 0 0 1 1.547 2.785c.253.492.507 1 .761 1.59.131.302.254.597.393.998.065.205.131.41.204.705.066.262.156.663.164 1.261v.312c0 .778-.303 1.556-.908 2.138l-.974.925-.966.844a45.694 45.694 0 0 1-1.932 1.548 87.863 87.863 0 0 1-3.888 2.826 131.91 131.91 0 0 1-3.928 2.638c-1.318.86-2.636 1.695-3.995 2.53-.965.59-2.242.41-2.987-.482-.81-.967-.688-2.433.311-3.269z" fill="#FCAD95"/><path d="M109.828 27.637c1.907-2.196 7.26-1.008 11.353 4.742a766.642 766.642 0 0 1 6.114 8.782c1.006 1.916-5.983 9.272-9.961 7.036 0 0-3.43-5.644-6.221-9.699-1.825-2.662-4.747-6.905-1.285-10.861z" fill="#F88950"/><path d="M98.148 24.278c-6.867.18-14.053 3.146-13.988 7.356.033 2.089.475 6.225.614 17.013.172 12.82-1.522 18.734 1.097 20.364 5.254 3.268 24.759 3.252 25.749-.5 1.056-3.989 2.808-37.197 2.66-39.949-.204-3.825-9.265-4.472-16.132-4.284z" fill="#FFAB4B"/><path d="M64.762 30.487c1.49 2.007 6.647 12.762 7.653 12.37 2.292-1.09 3.757-2.884 5.41-4.76 1.703-1.941 3.65-5.906 6.123-7.11 5.164-2.523 7.784 3.89 4.927 7.552-3.822 4.915-9.65 13.287-16.542 11.894-6.515-1.319-9.568-15.735-10.623-19.061-.917-2.883 2.422-2.064 3.052-.885z" fill="#FCAD95"/><path d="M84.324 28.169c-3.331 2.916-7.014 6.766-12.212 12.713-1.096 2.891 3.463 10.124 7.571 9.1 4.527-3.21 10.469-10.828 10.469-10.828 5.55-4.53-.278-15.826-5.828-10.985z" fill="#F88950"/><path d="m103.91 24.524-6.065-.098.393-7.905 5.639.066.033 7.937z" fill="#FFA58F"/><path d="M94.989 10.353s-.36 3.793-.344 5.562c.033 2.728.614 5.414 2.685 5.554 2.578.18 4.002-2.58 4.027-5.292l.319-5.414-6.687-.41z" fill="#FFAE99"/><path d="M105.244 17.7c.36-.966.606-3.505 1.113-4.627.5-1.13 1.294-3.465 1.015-4.49-.278-1.015-1.547-.917-1.907-1.367-.368-.443-1.064-1.294-2.087-1.507-1.031-.213-1.94.819-2.21.507-.581-.639-2.16-1.056-2.84-.229-.638.786-1.498.098-1.98-.123-1.613-.729-2.35 1.22-1.883 1.925.49.746.671 1.139.45 1.655-.147.336-.663 1.548.483 2.04.72.31.54 1.286 2.66 1.556 1.113.139 2.022-.197 2.324 1.106.361 1.556.099 3.366.549 4.25.466.967 3.241 2.172 4.313-.695z" fill="#AF683B"/><path d="M99.605 14.793c-.417.786-.253 1.687.369 2.015.614.327 1.457-.041 1.874-.828.426-.786.254-1.687-.368-2.023-.614-.32-1.457.05-1.875.836z" fill="#FFAE99"/><path d="M99.965 80.954s-7.26 20.896-9.6 29.644c-1.097 4.12-10.772 1.196-10.338-1.605 2.062-13.385 4.96-24.926 6.425-33.445l13.513 5.406z" fill="#DDEBF4"/><path d="M80.608 105.364c1.064-5.906 10.96-1.024 9.83 4.808-1.203 6.25-5.746 23.067-8.054 31.553-.245.901-8.561-.073-8.127-2.613.859-4.988 5.254-27.686 6.351-33.748z" fill="#DDEBF4"/><path d="M95.7 24.458a24.62 24.62 0 0 1 2.448-.18c2.333-.065 4.911-.024 7.317.197-.679.794-2.136 1.925-4.878 1.785-2.627-.13-4.133-1.105-4.886-1.802z" fill="#FFA58F"/><path d="M105.466 24.475c-.679.794-2.136 1.925-4.878 1.786-2.627-.131-4.133-1.106-4.895-1.802l9.773.016z" fill="#FFA58F"/><path d="M101.046 26.916c2.75 0 4.248-1.253 4.919-2.023l-.982-.844c-.672.778-1.965 1.695-4.355 1.564-2.373-.122-3.749-.95-4.485-1.63l-.876.95c.892.82 2.537 1.827 5.296 1.975.155.008.319.008.483.008z" fill="#F88950"/><path d="M65.204 26.891c-.286-1.425-.876-2.17-.933-2.179-.59-.114.008 2.236-.614 2.236-.933.009-1.866-4.284-2.422-4.275-.27 0 .122 2.72.122 2.72s-1.154-2.761-1.596-2.639c-.9.246.066 3.424.066 3.424s-1.04-2.03-1.072-1.45c-.132 1.958 1.62 6.586 3.715 6.496 3.11-.139 3.029-2.9 2.734-4.333z" fill="#FCAD95"/></svg>
